X: 39716
T: Terry's Frolics
R: reel
M: 4/4
K: Adorian
|:A2 EA DAEA|BG (3GGG EFGA|(3ccc Ac BE (3EEE|dBAG A2 cB|
A2 EA DAEA|BG (3GGG EFGA|Bcde g2 ed|1 cAGE A2 cB:|2 cAGE (3AAA Ac||
|:Bdef g2 ed|eaaf gfed|c2 Ac BE (3EEE|dBAG A2 Ac|
Bdef g2 ef|(3ggg de (3ggg ed|Bdef (3ggg ed|1 cAGE A2 GA:|2 cAGE A2 cB||

